X: 34090
T: Reel Della Pipera
R: reel
M: 4/4
K: Aminor
A2BA eABA|ABcA G2GF|EAAG ABcd|1 ecdB cAAG:|2 ecdB cAA2||
aged edcB|ABcA G2GF|EAAG ABcd|eaag eaa2|
aged edcB|ABcA G2GF|EAAG ABcd|ecdB cAA2||

